X: 1
P: Lady Maria Parker
C: Peter Bowie Colln, from Elke Baker
K: A
M: 4/4
L: 1/8
E|"A"c2 B>A c<e c2|"Bm"d>cB>A "E"GA c<e c2|"D"A/G/F/E/ "E"F>G "A"A2 A>B|
"A"c2 B>A c<e c2|"Bm"d>cB>A "E"GA c<ec<a|"D"a/g/f/e/ "E"f<g "A"a2 a||
ef/g/|"A"a>ef>e a<A "D"d/c/B/A/|G>BE>B Gg|"A"a>ef>e a<A "D"d/c/B/A/|"E"(3GAB (3EFG "A"A2 ef/g/|
"A"a>ef>e a<A "D"d/c/B/A/|"E"G>BE>B GB|"A"A>c"E"B>d "A"c>e"D"d<f|"E"a/g/f/e/ f>g "A"a2 a|]
